X:272
T:Liberty
C:Alan Bibey
N:Transcribed from Kaufman Kamp class tapes by Mike Stangeland
R:bluegrass
L:1/8
Q:1/4=230
M:4/4
K:D
z8 | z6 ea |: "Basic Version""D"f2 [f2d2] f2 [f2d2] | fe fg fd ef | "G"g2 B2 g2 BB | 
gf ga gf ed | "D"f2 d2 f2 d2 | fe fg fd ef | "A"gf ed cA Bc |1 d"D"A eA d4 :|2 d"D"A eA d2 dA | 
|: "D"FA AB AG (3EFE | DF Ad f2 d2 | FA AB AG EF | "A"(3DED C[DD] [E2A,2] [EA,][eAEA,] | 
"D"FA AB AG FE | DF Ad fd cd | (3"G"fgf ed "A"cA Bc |1 d"D"c ec d2 dA :|2 d"D"c ec d2 eg | 
"Advanced version"fd Ad fd Ad | fg af gf ef | "G"gd Bd gd Bd | ga bg ag eg | f"D"d Ad fd Ad | 
fg af gf ef | (3"A"fgf ed cA Bc | d"D"c ec d2 eg | f"D"d Ad fd Ad | fg af gf ed | 
"G"Bd gB dg Bd | gf ga gd Bd | "D"fd Af dA fd | Ad gf ed fd | "A"ed B/c/B AB AG | 
"D"FD EC D2 D2 | [AG]A AB AG FE | DF Ad f2 d2 | FA AB AG FG | (3"A"EFE D2 [EB,][EC] [AEC][AEC] | 
{^G}"D"AA AB A=G (3EFE | DF Ad fd cd | (3"G"fgf ed "A"cA Bc | "D"dc de d2 dA | 
FA AB AG (3EFE | DF Ad f2 d2 | FA AB AG DG, | "A"^DE =D=C [E2A,2] [A2E2A,2] | 
"D"[FD]D AB AG FE | (3DEF (3ABc dB cd | "G"fe df "A"ed Bc | "D"dc ec d2 Ac | de cd (3BcB AG | 
FD (3EFE D4 | DF ED B,2 A,2 | A,B, [=F2C2] [^F4D4] | 


